files/1/32x32/places/user-desktop.svg

<svg width="32" xmlns="http://www.w3.org/2000/svg" height="32" viewBox="0 0 32 32" xmlns:xlink="http://www.w3.org/1999/xlink">
<g style="stroke:#a57953" transform="translate(0 1)">
<path style="fill:#a57953" d="M 4.3464647,24.5 C 3.8874205,24.452956 3.5,23.991935 3.5,23.497984 L 3.5,4.5067202 C 3.5,3.9798389 3.946022,3.5 4.437622,3.5 l 23.124756,0 C 28.053978,3.5 28.5,3.9798389 28.5,4.5067202 l 0,16.2350548 c 0,0.526881 -0.718078,1.28348 -1.209678,1.28348 l -8.465029,-0.01481 0,1.324124 c 0,0.522177 -0.411445,1.165426 -0.899787,1.165426 l -13.487884,0 c -0.0293,0 -0.058601,0 -0.091156,0 z"/>
<path style="fill:#e9b080" d="M 1.5496163,5.5 C 0.9804014,5.5470431 0.5000001,6.0080649 0.5000001,6.5020161 l 0,18.9912639 c 0,0.526881 0.5530672,1.00672 1.1626514,1.00672 l 28.6746975,0 C 30.946933,26.5 31.5,26.020161 31.5,25.49328 l 0,-16.2350547 C 31.5,8.7313437 30.609584,7.9747449 30,7.9747449 l -10.496636,0.014805 0,-1.3241241 C 19.503364,6.1432479 18.993173,5.5 18.387626,5.5 l -16.7249745,0 c -0.036332,0 -0.072665,0 -0.1130352,0 z"/>
</g>
<g style="fill:#a57953">
<path style="fill-rule:evenodd" d="M 10.667969 14 L 10.667969 15.332031 L 11.332031 15.332031 L 11.332031 14.332031 C 11.332031 13.996094 11.667969 13.996094 11.667969 13.996094 L 12.667969 14 L 12.667969 13.332031 L 11.332031 13.332031 C 11.332031 13.332031 10.667969 13.332031 10.667969 14 Z M 19.332031 13.332031 L 19.332031 14 L 20.332031 14 C 20.332031 14 20.667969 13.996094 20.667969 14.332031 L 20.667969 15.332031 L 21.332031 15.332031 L 21.332031 14 C 21.332031 13.332031 20.667969 13.332031 20.667969 13.332031 Z M 10.667969 20.667969 L 10.667969 22 C 10.667969 22.667969 11.332031 22.667969 11.332031 22.667969 L 12.667969 22.667969 L 12.667969 22 L 11.667969 22.003906 C 11.332031 22 11.332031 21.671875 11.332031 21.671875 L 11.332031 20.667969 Z M 20.667969 20.667969 L 20.667969 21.667969 C 20.667969 21.996094 20.332031 22 20.332031 22 L 19.332031 22 L 19.332031 22.667969 L 20.667969 22.667969 C 20.667969 22.667969 21.332031 22.667969 21.332031 22 L 21.332031 20.667969 Z "/>
<path d="M 12.667969 15.996094 L 12.667969 18.664062 C 12.667969 19.328125 13.332031 19.328125 13.332031 19.328125 L 15.332031 19.328125 C 16 19.328125 16 18.664062 16 18.664062 L 16 16.664062 L 14.667969 15.328125 L 13.332031 15.328125 C 13.332031 15.328125 12.667969 15.328125 12.667969 15.996094 Z M 13.332031 15.996094 L 14.667969 15.996094 L 14.667969 16.664062 L 15.332031 16.664062 L 15.332031 18.664062 L 13.332031 18.664062 Z "/>
</g>
</svg>

<?xml version="1.0" encoding="UTF-8" standalone="no"?>
<svg
   xmlns:dc="http://purl.org/dc/elements/1.1/"
   xmlns:cc="http://creativecommons.org/ns#"
   xmlns:rdf="http://www.w3.org/1999/02/22-rdf-syntax-ns#"
   xmlns:svg="http://www.w3.org/2000/svg"
   xmlns="http://www.w3.org/2000/svg"
   xmlns:sodipodi="http://sodipodi.sourceforge.net/DTD/sodipodi-0.dtd"
   xmlns:inkscape="http://www.inkscape.org/namespaces/inkscape"
   width="32"
   height="32"
   viewBox="0 0 32 32"
   id="svg2"
   version="1.1"
   inkscape:version="0.48.5 r10040"
   sodipodi:docname="user-desktop.svg">
  <metadata
     id="metadata20">
    <rdf:RDF>
      <cc:Work
         rdf:about="">
        <dc:format>image/svg+xml</dc:format>
        <dc:type
           rdf:resource="http://purl.org/dc/dcmitype/StillImage" />
      </cc:Work>
    </rdf:RDF>
  </metadata>
  <defs
     id="defs18" />
  <sodipodi:namedview
     pagecolor="#ffffff"
     bordercolor="#666666"
     borderopacity="1"
     objecttolerance="10"
     gridtolerance="10"
     guidetolerance="10"
     inkscape:pageopacity="0"
     inkscape:pageshadow="2"
     inkscape:window-width="672"
     inkscape:window-height="480"
     id="namedview16"
     showgrid="false"
     inkscape:zoom="7.375"
     inkscape:cx="11.79661"
     inkscape:cy="16"
     inkscape:window-x="0"
     inkscape:window-y="0"
     inkscape:window-maximized="0"
     inkscape:current-layer="svg2" />
  <path
     style="font-size:medium;font-style:normal;font-variant:normal;font-weight:normal;font-stretch:normal;text-indent:0;text-align:start;text-decoration:none;line-height:normal;letter-spacing:normal;word-spacing:normal;text-transform:none;direction:ltr;block-progression:tb;writing-mode:lr-tb;text-anchor:start;baseline-shift:baseline;color:#000000;fill:#e9b080;fill-opacity:1;fill-rule:nonzero;stroke:none;stroke-width:1;marker:none;visibility:visible;display:inline;overflow:visible;enable-background:accumulate;font-family:Sans;-inkscape-font-specification:Sans"
     d="m 4,3.9999997 c -0.4916,0 -1,0.4731187 -1,1 l 0,1 c -0.6666667,0 -0.8333333,0 -1.5,0 -0.9791617,0 -1.5,0.4940342 -1.5,1.5 L 0,26.5 C 0,27.531461 0.5230687,28 1.5,28 l 28.84375,0 C 31.21572,28 32,27.376781 32,26.5 l 0,-17 C 32,8.558677 31.574893,8 30.5,8 L 28,8 28,4.9999997 c 0,-0.5268813 -0.5084,-1 -1,-1 z"
     id="path3004"
     inkscape:connector-curvature="0"
     sodipodi:nodetypes="ssccssssscccsss" />
  <path
     style="font-size:medium;font-style:normal;font-variant:normal;font-weight:normal;font-stretch:normal;text-indent:0;text-align:start;text-decoration:none;line-height:normal;letter-spacing:normal;word-spacing:normal;text-transform:none;direction:ltr;block-progression:tb;writing-mode:lr-tb;text-anchor:start;baseline-shift:baseline;color:#000000;fill:#000000;fill-opacity:0.32156863;fill-rule:nonzero;stroke:none;stroke-width:1;marker:none;visibility:visible;display:inline;overflow:visible;enable-background:accumulate;font-family:Sans;-inkscape-font-specification:Sans"
     d="m 4,3.9999997 c -0.4916,0 -1,0.4731186 -1,1 l 0,1 c -0.6868035,0 -0.8835353,0 -1.5,0 -0.9791617,0 -1.5,0.4829856 -1.5,1.5 L 0,26.5 C 0,27.503839 0.5009716,28 1.5,28 l 28.84375,0 C 31.21572,28 32,27.376781 32,26.5 L 32,9.551776 C 32,8.537794 31.580916,8 30.5,8 L 28,8 28,4.9999997 c 0,-0.5268814 -0.5084,-1 -1,-1 z m 15,3 L 19,9 31,9 31,27 1,27 1,6.9999997 z"
     id="path3784"
     inkscape:connector-curvature="0"
     sodipodi:nodetypes="ssccssssscccsssccccccc" />
  <path
     inkscape:connector-curvature="0"
     id="path12"
     d="m 10.667969,14 0,1.332031 0.664062,0 0,-1 c 0,-0.335937 0.335938,-0.335937 0.335938,-0.335937 l 1,0.0039 0,-0.667969 -1.335938,0 c 0,0 -0.664062,0 -0.664062,0.667969 z m 8.664062,-0.667969 0,0.667969 1,0 c 0,0 0.335938,-0.0039 0.335938,0.332031 l 0,1 0.664062,0 0,-1.332031 c 0,-0.667969 -0.664062,-0.667969 -0.664062,-0.667969 z m -8.664062,7.335938 0,1.332031 c 0,0.667969 0.664062,0.667969 0.664062,0.667969 l 1.335938,0 0,-0.667969 -1,0.0039 C 11.332031,22 11.332031,21.671875 11.332031,21.671875 l 0,-1.003906 z m 10,0 0,1 C 20.667969,21.996094 20.332031,22 20.332031,22 l -1,0 0,0.667969 1.335938,0 c 0,0 0.664062,0 0.664062,-0.667969 l 0,-1.332031 z"
     style="fill:#000000;fill-rule:evenodd;fill-opacity:0.32156864" />
  <path
     style="fill:#000000;fill-opacity:0.32156864"
     inkscape:connector-curvature="0"
     id="path14"
     d="m 12.667969,15.996094 0,2.667968 c 0,0.664063 0.664062,0.664063 0.664062,0.664063 l 2,0 C 16,19.328125 16,18.664062 16,18.664062 l 0,-2 -1.332031,-1.335937 -1.335938,0 c 0,0 -0.664062,0 -0.664062,0.667969 z m 0.664062,0 1.335938,0 0,0.667968 0.664062,0 0,2 -2,0 z" />
</svg>
